src/images/single-assets/MENDI.svg

<svg width="128" height="128" viewBox="0 0 128 128" fill="none" xmlns="http://www.w3.org/2000/svg">
<g clip-path="url(#clip0_142_3090)">
<path d="M128 64C128 99.3472 99.3472 128 64 128C28.6528 128 0 99.3472 0 64C0 28.6528 28.6528 0 64 0C99.3472 0 128 28.6528 128 64Z" fill="white"/>
<path d="M36.9536 42.0736L41.4464 45.6288L33.9008 61.136L45.6096 48.9216L48.5632 45.8368L64.1184 29.6128L79.6384 45.8112L85.824 52.2592L93.2032 59.9584L89.9296 49.2544L94.1216 46.1824L117.76 62.464C118.698 63.1104 119.984 62.4032 119.93 61.264C118.502 31.6064 94.0064 8 63.9936 8C33.9808 8 9.58401 31.52 8.07361 61.104C8.01281 62.272 9.36001 62.9728 10.2912 62.2656L36.9536 42.0736Z" fill="#39CDFF"/>
<path d="M64 72.688C43.7504 72.688 25.9808 75.936 13.1648 79.2288C11.6096 79.6288 10.7104 81.2832 11.248 82.7968C18.9728 104.477 39.6672 120 64 120C88.3328 120 109.027 104.477 116.752 82.7968C117.293 81.2832 116.39 79.632 114.835 79.232C102.019 75.9392 84.2496 72.6912 63.9968 72.6912" fill="#070F1E"/>
</g>
<defs>
<clipPath id="clip0_142_3090">
<rect width="128" height="128" fill="white"/>
</clipPath>
</defs>
</svg>

<svg xmlns="http://www.w3.org/2000/svg" width="128" height="128" fill="none"><g clip-path="url(#a)"><path fill="#fff" d="M128 64c0 35.347-28.653 64-64 64S0 99.347 0 64 28.653 0 64 0s64 28.653 64 64"/><path fill="#39CDFF" d="m36.954 42.074 4.492 3.555-7.545 15.507L45.61 48.922l2.953-3.085 15.555-16.224 15.52 16.198 6.186 6.448 7.38 7.7-3.274-10.705 4.192-3.072 23.638 16.282c.938.646 2.224-.06 2.17-1.2C118.502 31.606 94.006 8 63.994 8 33.98 8 9.584 31.52 8.074 61.104c-.061 1.168 1.286 1.869 2.217 1.162z"/><path fill="#070F1E" d="M64 72.688c-20.25 0-38.02 3.248-50.835 6.54-1.555.4-2.455 2.055-1.917 3.569C18.973 104.477 39.668 120 64 120s45.027-15.523 52.752-37.203c.541-1.514-.362-3.165-1.917-3.565-12.816-3.293-30.585-6.54-50.838-6.54"/></g><defs><clipPath id="a"><path fill="#fff" d="M0 0h128v128H0z"/></clipPath></defs></svg>
